X:1
T:title
M:4/4
Q:120
L:1/8
R:Reel
K:C
 _F _c' ^e'c _b'4 | D4c2F2 | F3 _C ^d'4 | D2 ^a3 _e _D2 |  ^D ^g4 ^G ^E2 |  _g' _E2f'2 ^A2 _A |  ^f'2 _g4 ^c'2 | B2 ^D ^f'3 ^AE | 